X:151
T:Our Home Town Schottische
R:schottis
C:Bruce Osborne - June 2002
Z:abc by bosborne@kos.net
M:2/4
L:1/8
K:Amaj
e/d/|c/A/E/C/ A,/C/E/A/|f/e/c/f/ e/c/A/c/|B/A/B/c/ d/B/G/B/|A/G/A/B/ ce/d/|\
c/A/E/C/ A,/C/E/A/|f/e/c/f/ e/c/A/c/|B/c/d/B/ G/B/E/G/|B/A/A/G/ A:|
|:A/B/|c/A/E/D/ C/E/A,/B,/|C/E/A/B/ cB/c/|d/B/G/B/ E/G/B/G/|A/B/c/f/ eA/B/|\
c/A/E/D/ C/E/A,/B,/|C/E/A/B/ cB/c/|d/B/G/B/ E/G/B/d/|c/A/A/G/ A:|
